src/main/resources/icons/UIDesignerIcons/com/intellij/uiDesigner/icons/splitColumn.svg

<svg xmlns="http://www.w3.org/2000/svg" width="16" height="16" viewBox="0 0 16 16"><rect id="frame" width="16" height="16" fill="none"/><path fill="#6E6E6E" fill-rule="evenodd" d="M7 12V3H5V2h5v1H8v9h2v1H5v-1h2zm5-10h1v1h-1V2zm0 2h1v1h-1V4zm0 2h1v1h-1V6zm0 2h1v1h-1V8zm0 2h1v1h-1v-1zm0 2h1v1h-1v-1zM2 2h1v1H2V2zm0 2h1v1H2V4zm0 2h1v1H2V6zm0 2h1v1H2V8zm0 2h1v1H2v-1zm0 2h1v1H2v-1z"/></svg>

<svg xmlns="http://www.w3.org/2000/svg" width="16" height="16" viewBox="0 0 16 16">
  <path fill="#6E6E6E" fill-rule="evenodd" d="M7,12 L7,3 L5,3 L5,2 L10,2 L10,3 L8,3 L8,12 L10,12 L10,13 L5,13 L5,12 L7,12 Z M12,2 L13,2 L13,3 L12,3 L12,2 Z M12,4 L13,4 L13,5 L12,5 L12,4 Z M12,6 L13,6 L13,7 L12,7 L12,6 Z M12,8 L13,8 L13,9 L12,9 L12,8 Z M12,10 L13,10 L13,11 L12,11 L12,10 Z M12,12 L13,12 L13,13 L12,13 L12,12 Z M2,2 L3,2 L3,3 L2,3 L2,2 Z M2,4 L3,4 L3,5 L2,5 L2,4 Z M2,6 L3,6 L3,7 L2,7 L2,6 Z M2,8 L3,8 L3,9 L2,9 L2,8 Z M2,10 L3,10 L3,11 L2,11 L2,10 Z M2,12 L3,12 L3,13 L2,13 L2,12 Z"/>
</svg>
